src/16/panel/messenger-notification.svg

<svg xmlns="http://www.w3.org/2000/svg" width="16" height="16" version="1.1">
 <defs>
  <style id="current-color-scheme" type="text/css">
   .ColorScheme-Text { color:#dfdfdf; } .ColorScheme-Highlight { color:#4285f4; }
  </style>
 </defs>
 <path style="fill:currentColor" class="ColorScheme-Text" d="M 8,1 C 4.1340068,1 1,3.9101491 1,7.5 1.000578,9.0815912 1.6217111,10.587594 2.7128906,11.755859 3.1825334,11.273575 3.8268276,11.00107 4.5,11 5.8807119,11 7,12.119288 7,13.5 6.9987202,13.640172 6.9856533,13.779988 6.9609375,13.917969 7.3044156,13.966831 7.6513715,13.999055 8,14 11.865993,14 15,11.089851 15,7.5 15,3.9101491 11.865993,1 8,1 Z M 7,4 9,7 13,5 8,11 7,7.5 3,9 Z"/>
 <circle style="fill:currentColor" class="ColorScheme-Highlight" cx="4.5" cy="13.5" r="1.5"/>
</svg>

<svg xmlns="http://www.w3.org/2000/svg" width="16" height="16"><defs><style id="current-color-scheme" type="text/css">.ColorScheme-Text{color:#dfdfdf;}.ColorScheme-Highlight{color:#5294e2;}</style></defs><path d="M8 1C4.134 1 1 3.91 1 7.5c0 1.582.622 3.088 1.713 4.256A2.5 2.5 0 0 1 4.5 11 2.5 2.5 0 0 1 7 13.5a2.5 2.5 0 0 1-.04.418c.344.049.691.081 1.04.082 3.866 0 7-2.91 7-6.5S11.866 1 8 1zM7 4l2 3 4-2-5 6-1-3.5L3 9z" fill="currentColor" class="ColorScheme-Text"/><circle cx="4.5" cy="13.5" r="1.5" fill="currentColor" class="ColorScheme-Highlight"/></svg>
